!! Stephen C. Foster, "Old Dog Tray"
!! from 'Stephen Foster Song Book' Dover Publications (New York) pp. 97-9
!! NOTE:  Leading and trailing bars of rest have been omitted.
**kern
*M4/4
*MM80
*G:
8d
=1
8d
8g
8f#
8g
4a
8r
8a
=2
8b
8a
8f#
8d
4d
8r
8b
=3
4b
8a#
8b
4dd
8cc
8an
=4
4g
8g
8b
4a
8r
8d
=5
8d
8g
8f#
8g
4a
8r
8a
=6
8.b
16a
8f#
8d
4.b
8r
=7
8b
8cc
8e
8a
4g
4f#
=8
2.g
4r
!! Chorus:
=9
4dd
4a
4a
8a
8b
=10
2g
4d
4r
=11
4dd
8a
8a
4a
8g
8a
=12
2.b
8r
8d
=13
8d
8g
8f#
8g
4a
8r
8a
=14
8b
8a
8f#
8d
4b
8r
8b
=15
8b
8cc
8.e
16a
4g
4f#
=16
2.g
4r
=17
1r
=18
1r
=19
1r
=20
4r
4r
4r;
8r
8d
=21
8d
8g
8.f#
16g
4a
8r
8a
=22
8b
8a
8.f#
16d
4d
8r
8b
=23
4b
8.a#
16b
4dd
8.cc
16an
=24
8g
8f#
8.g
16b
4a
8r
8d
=25
8d
8g
8f#
8g
4a
8r
8a
=26
8b
8a
8f#
8d
4b
8r
8b
=27
8b
8cc
8.e
16a
4g
4f#
=28
2.g
4r
=29
4dd
4a
4a
8a
8b
=30
2g
4d
4r
=31
4dd
8a
8a
4a
8g
8a
=32
2.b
8r
8d
=33
8d
8g
8f#
8g
4a
8r
8a
=34
8b
8a
8f#
8d
4b
8r
8b
=35
8b
8cc
8.e
16a
4g
4f#
=36
2.g
4r
==
*-
